X:1535
T:"The Jolly Tinker"   (reel)     1535
C:after Mr. Patsy Touhy
B:O'Neill's Music Of Ireland (The 1850) Lyon & Healy, Chicago, 1903 edition
Z:FROM O'NEILL'S TO NOTEWORTHY, FROM NOTEWORTHY TO ABC, MIDI AND .TXT BY VINCE
BRENNAN July 2003 (HTTP://WWW.SOSYOURMOM.COM)
I:abc2nwc
M:C|
L:1/8
K:D
A3F GFGB|A2af gedB|ABAF GFGB|[1dBGB dedB:|[2dBGB d2 (3(Bcd)
|:e^def g2(ef)|g2(af) gfed|e^d  (3(efg) ageg|a2(bg) aged:|
|:eaag edBd|eaag  (3(efg) dg|eaag efge|dBGB d2 (3(Bcd):|
|:edgd ed  (3(Bcd)|edgd e2 (3(Bcd)|edgd efge|dBGB d2(Bd):|
eA  (3(AAA) edBd|e^def gefd|eA  (3(AAA) efge|dBGB d2(Bd)|
ea{b}ag edBd|e^def gefd|efgb afge|dBGB dedB||
A3F GFGB|A2af gedB|ABAF GFGB|[1dBGB dedB:|[2dBGB d2 (3(Bcd)|]
